X: 1134
T:Gypsy Princess
M:4/4
L:1/8
R: Barndance
K: G Major
|: G>A | 
B2 (3BBB B2 B2 | A>BA>G E2 (3DEF | G3 B d2 (3Bcd | (3efe dB A2 G>A | 
B>cB>A B2 (3BBB | A2 (3BAG (3EFE D2 | G3 B d>ed>B | (3ABA G2 G2 :|
|: (3ABc | 
d3 e g3 d | B>cB>A G>A (3Bcd | e2 (3eee e2 g>e | B>cB>A G2 B>c | 
d2 d>e g2 g>d | B2 B>A G2 B>d | g3 e d>B (3GFA | (3ABA G2 G2 :|
